;FLAVOR:Marlin
;TIME:9141
;Filament used: 4.91567m
;Layer height: 0.1
;MINX:-45.4
;MINY:-33.3
;MINZ:0.3
;MAXX:9
;MAXY:33.3
;MAXZ:36
;Generated with Cura_SteamEngine 4.13.0
M140 S60
M105
M190 S60
M104 S200
M105
M109 S200
M82 ;absolute extrusion mode
;FLAVOR:Marlin
M82 ;absolute extrusion mode
G21
G90
M82
M107 T0
G28
G92 E0
G0 E3 F200
G92 E0 ; reset extrusion distance
M106 S255 ; Enable cooling fan full speed
G1 X-98 Y0 Z0.4 F3000 ; move to arc start
G3 X0 Y-98 I98 Z0.4 E40 F400 ; lay arc stripe 90deg
G92 E0 ; reset extrusion distance
G4 P500 ; wait for 0.5 sec
G0 Z10 E-1 ; Lift 15mm and retract 1mm filament
G4 P2000 ; wait for 5 sec
G0 Z15
M107 ; Disable cooling fan
G1 X0 Y-85 Z4 E0 F3000 ; get off the bed
G92 E0
G92 E0
G1 F1500 E-6.5
;LAYER_COUNT:358
;LAYER:0
M107
G0 F3600 X9 Y4.844 Z0.3
;TYPE:SKIRT
G1 F1500 E0
G1 F1800 X8.99 Y5.547 E0.03508
G1 X8.942 Y6.081 E0.06183
G1 X8.816 Y6.603 E0.08862
G1 X8.613 Y7.099 E0.11535
G1 X8.172 Y7.821 E0.15756
G1 X7.104 Y9.402 E0.25275
G1 X5.652 Y11.688 E0.38786
G1 X4.258 Y14.027 E0.52371
G1 X2.913 Y16.434 E0.66127
G1 X1.67 Y18.816 E0.79531
G1 X0.467 Y21.29 E0.93256
G1 X-.655 Y23.772 E1.06845
G1 X-1.705 Y26.281 E1.20415
G1 X-2.701 Y28.862 E1.34217
G1 X-3.201 Y30.284 E1.41737
G1 X-3.43 Y30.904 E1.45034
G1 X-3.653 Y31.392 E1.47711
G1 X-3.946 Y31.841 E1.50386
G1 X-4.302 Y32.242 E1.53061
G1 X-4.714 Y32.586 E1.55739
G1 X-5.172 Y32.864 E1.58412
G1 X-5.667 Y33.072 E1.61091
G1 X-6.186 Y33.203 E1.63761
G1 X-6.696 Y33.255 E1.66319
G1 X-7.13 Y33.267 E1.68485
G1 X-41.148 Y33.266 E3.38201
G1 X-41.827 Y33.256 E3.41589
G1 X-42.361 Y33.208 E3.44264
G1 X-42.882 Y33.081 E3.4694
G1 X-43.379 Y32.879 E3.49616
G1 X-43.84 Y32.604 E3.52294
G1 X-44.255 Y32.265 E3.54968
G1 X-44.525 Y31.978 E3.56933
G1 X-44.843 Y31.546 E3.5961
G1 X-45.093 Y31.071 E3.62288
G1 X-45.27 Y30.565 E3.64962
G1 X-45.369 Y30.038 E3.67637
G1 X-45.399 Y29.42 E3.70724
G1 X-45.4 Y-29.041 E6.62387
G1 X-45.391 Y-29.706 E6.65705
G1 X-45.343 Y-30.24 E6.6838
G1 X-45.217 Y-30.761 E6.71054
G1 X-45.015 Y-31.258 E6.73731
G1 X-44.742 Y-31.719 E6.76404
G1 X-44.403 Y-32.135 E6.79081
G1 X-44.006 Y-32.495 E6.81755
G1 X-43.559 Y-32.793 E6.84435
G1 X-43.074 Y-33.021 E6.87109
G1 X-42.56 Y-33.174 E6.89784
G1 X-41.892 Y-33.256 E6.93142
G1 X-41.47 Y-33.266 E6.95248
G1 X-7.456 Y-33.266 E8.64944
G1 X-6.755 Y-33.256 E8.68442
G1 X-6.22 Y-33.208 E8.71122
G1 X-5.699 Y-33.082 E8.73796
G1 X-5.203 Y-32.879 E8.7647
G1 X-4.742 Y-32.605 E8.79145
G1 X-4.326 Y-32.266 E8.81823
G1 X-3.966 Y-31.869 E8.84496
G1 X-3.669 Y-31.422 E8.87174
G1 X-3.411 Y-30.854 E8.90286
G1 X-3.133 Y-30.066 E8.94455
G1 X-2.186 Y-27.508 E9.08064
G1 X-1.157 Y-24.951 E9.21815
G1 X-0.077 Y-22.473 E9.35301
G1 X1.073 Y-20.026 E9.4879
G1 X2.313 Y-17.57 E9.62516
G1 X3.614 Y-15.165 E9.76158
G1 X4.976 Y-12.808 E9.89739
G1 X6.416 Y-10.473 E10.03425
G1 X7.908 Y-8.2 E10.1699
G1 X8.375 Y-7.507 E10.21159
G1 X8.641 Y-7.041 E10.23836
G1 X8.835 Y-6.541 E10.26512
G1 X8.952 Y-6.018 E10.29186
G1 X8.998 Y-5.281 E10.3287
G1 X9 Y-5.17 E10.33424
G1 X9 Y4.844 E10.83384
G0 F3600 X8.6 Y4.839
G1 F1800 X8.59 Y5.542 E10.86891
G1 X8.543 Y6.045 E10.89412
G1 X8.417 Y6.535 E10.91936
G1 X8.215 Y6.998 E10.94456
G1 X7.837 Y7.602 E10.98011
G1 X6.774 Y9.177 E11.07491
G1 X5.308 Y11.484 E11.21128
G1 X3.915 Y13.822 E11.34705
G1 X2.568 Y16.233 E11.48484
G1 X1.299 Y18.663 E11.62161
G1 X0.107 Y21.115 E11.75763
G1 X-1.017 Y23.603 E11.89383
G1 X-2.089 Y26.161 E12.03221
G1 X-3.066 Y28.693 E12.16761
G1 X-3.576 Y30.146 E12.24443
G1 X-3.805 Y30.766 E12.27741
G1 X-4.017 Y31.225 E12.30263
G1 X-4.299 Y31.644 E12.32783
G1 X-4.643 Y32.015 E12.35307
G1 X-5.042 Y32.326 E12.37831
G1 X-5.484 Y32.571 E12.40352
G1 X-5.959 Y32.743 E12.42873
G1 X-6.708 Y32.855 E12.46651
G1 X-7.13 Y32.867 E12.48757
G1 X-41.142 Y32.866 E14.18444
G1 X-41.821 Y32.856 E14.21832
G1 X-42.324 Y32.808 E14.24352
G1 X-42.814 Y32.682 E14.26877
G1 X-43.278 Y32.481 E14.29399
G1 X-43.704 Y32.209 E14.31921
G1 X-44.204 Y31.739 E14.35345
G1 X-44.222 Y31.718 E14.35483
G1 X-44.519 Y31.309 E14.38004
G1 X-44.749 Y30.858 E14.4053
G1 X-44.905 Y30.377 E14.43053
G1 X-44.991 Y29.718 E14.46368
G1 X-45 Y29.327 E14.4832
G1 X-45 Y-29.035 E17.39489
G1 X-44.991 Y-29.7 E17.42807
G1 X-44.944 Y-30.204 E17.45332
G1 X-44.818 Y-30.693 E17.47852
G1 X-44.617 Y-31.157 E17.50374
G1 X-44.346 Y-31.584 E17.52897
G1 X-44.011 Y-31.962 E17.55417
G1 X-43.62 Y-32.283 E17.57941
G1 X-43.183 Y-32.538 E17.60465
G1 X-42.712 Y-32.722 E17.62988
G1 X-42.218 Y-32.828 E17.65509
G1 X-41.56 Y-32.865 E17.68797
G1 X-7.461 Y-32.866 E19.38917
G1 X-6.76 Y-32.856 E19.42415
G1 X-6.257 Y-32.809 E19.44936
G1 X-5.767 Y-32.683 E19.4746
G1 X-5.304 Y-32.481 E19.4998
G1 X-4.877 Y-32.209 E19.52506
G1 X-4.499 Y-31.874 E19.55026
G1 X-4.179 Y-31.483 E19.57546
G1 X-3.924 Y-31.046 E19.60071
G1 X-3.788 Y-30.721 E19.61828
G1 X-3.506 Y-29.921 E19.6606
G1 X-2.549 Y-27.337 E19.79807
G1 X-1.543 Y-24.838 E19.93247
G1 X-.434 Y-22.292 E20.07102
G1 X0.732 Y-19.812 E20.20774
G1 X1.947 Y-17.405 E20.34226
G1 X3.265 Y-14.969 E20.48044
G1 X4.632 Y-12.604 E20.61672
G1 X6.068 Y-10.274 E20.75327
G1 X7.577 Y-7.976 E20.89043
G1 X8.044 Y-7.283 E20.93212
G1 X8.292 Y-6.843 E20.95732
G1 X8.468 Y-6.369 E20.98254
G1 X8.568 Y-5.873 E21.00779
G1 X8.598 Y-5.268 E21.03801
G1 X8.6 Y-5.17 E21.0429
G1 X8.6 Y4.839 E21.54225
G1 F1500 E15.04225
;MESH:USB_Plug.stl
G0 F3600 X6.065 Y4.839
G0 X4.78 Y4.839
G0 X-4.63 Y4.83
G1 F1500 E21.54225
G0 F3600 X-4.7 Y4.9
;TYPE:WALL-INNER
G1 F1800 X-4.7 Y-4.9 E22.03117
G1 X4.8 Y-4.9 E22.50513
G1 X4.8 Y4.9 E22.99405
G1 X-4.7 Y4.9 E23.46801
G0 F3600 X-5.1 Y5.3
;TYPE:WALL-OUTER
G1 F1800 X-5.1 Y-5.3 E23.99685
G1 X5.2 Y-5.3 E24.51071
G1 X5.2 Y5.3 E25.03955
G1 X-5.1 Y5.3 E25.55342
G0 F3600 X-5.1 Y5.1
G0 X-4.31 Y4.51
;TYPE:SKIN
G1 F1800 X-4.31 Y-4.51 E26.00343
G1 X4.41 Y-4.51 E26.43847
G1 X4.41 Y4.51 E26.88848
G1 X-4.31 Y4.51 E27.32352
G0 F3600 X-3.59 Y4.328
G1 F1800 X-4.13 Y3.789 E27.36159
G0 F3600 X-4.13 Y3.223
G1 F1800 X-3.025 Y4.328 E27.43955
G0 F3600 X-2.459 Y4.328
G1 F1800 X-4.13 Y2.658 E27.55742
G0 F3600 X-4.13 Y2.092
G1 F1800 X-1.893 Y4.328 E27.71521
G0 F3600 X-1.327 Y4.328
G1 F1800 X-4.13 Y1.526 E27.91294
G0 F3600 X-4.13 Y0.96
G1 F1800 X-.762 Y4.328 E28.15057
G0 F3600 X-.196 Y4.328
G1 F1800 X-4.13 Y0.395 E28.4281
G0 F3600 X-4.13 Y-.17
G1 F1800 X0.369 Y4.328 E28.7455
G0 F3600 X0.934 Y4.328
G1 F1800 X-4.13 Y-.736 E29.10279
G0 F3600 X-4.13 Y-1.301
G1 F1800 X1.5 Y4.328 E29.49998
G0 F3600 X2.066 Y4.328
G1 F1800 X-4.13 Y-1.867 E29.93711
G0 F3600 X-4.13 Y-2.433
G1 F1800 X2.631 Y4.328 E30.41413
G0 F3600 X3.197 Y4.328
G1 F1800 X-4.13 Y-2.998 E30.93106
G0 F3600 X-4.13 Y-3.564
G1 F1800 X3.763 Y4.328 E31.48792
G0 F3600 X4.229 Y4.229
G1 F1800 X-4.13 Y-4.13 E32.07769
G0 F3600 X-3.763 Y-4.328
G1 F1800 X4.229 Y3.664 E32.64157
G0 F3600 X4.229 Y3.098
G1 F1800 X-3.197 Y-4.328 E33.16551
G0 F3600 X-2.631 Y-4.328
G1 F1800 X4.229 Y2.532 E33.64952
G0 F3600 X4.229 Y1.967
G1 F1800 X-2.066 Y-4.328 E34.09367
G0 F3600 X-1.5 Y-4.328
G1 F1800 X4.229 Y1.401 E34.49788
G0 F3600 X4.229 Y0.835
G1 F1800 X-.934 Y-4.328 E34.86216
G0 F3600 X-.369 Y-4.328
G1 F1800 X4.229 Y0.27 E35.18657
G0 F3600 X4.229 Y-.295
G1 F1800 X0.196 Y-4.328 E35.47112
G0 F3600 X0.762 Y-4.328
G1 F1800 X4.229 Y-.861 E35.71574
G0 F3600 X4.229 Y-1.426
G1 F1800 X1.327 Y-4.328 E35.92049
G0 F3600 X1.893 Y-4.328
G1 F1800 X4.229 Y-1.992 E36.08531
G0 F3600 X4.229 Y-2.558
G1 F1800 X2.459 Y-4.328 E36.21019
G0 F3600 X3.025 Y-4.328
G1 F1800 X4.229 Y-3.123 E36.29517
G0 F3600 X4.229 Y-3.689
G1 F1800 X3.59 Y-4.328 E36.34026
G0 F3600 X4.156 Y-4.328
G1 F1800 X4.229 Y-4.255 E36.34541
G1 F1500 E29.84541
;MESH:Flex_AccBody.stl
G0 F3600 X-4.686 Y4.886
G0 X-7.42 Y4.886
G0 X-11.13 Y22.67
G1 F1500 E36.34541
G0 F3600 X-11.2 Y22.6
;TYPE:WALL-INNER
G1 F1800 X-11.2 Y-23.6 E38.65034
G1 X-37.4 Y-23.6 E39.95746
G1 X-37.4 Y22.6 E42.26239
G1 X-11.2 Y22.6 E43.56951
G0 F3600 X-11.13 Y22.67
G0 X-37.428 Y22.628
G0 X-41.13 Y-28.996
G0 X-41.2 Y-29.066
G1 F1800 X-7.4 Y-29.066 E45.2558
G1 X-7.4 Y29.067 E48.15607
G1 X-41.2 Y29.066 E49.84235
G1 X-41.2 Y-29.066 E52.74257
G0 F3600 X-41.6 Y-29.466
;TYPE:WALL-OUTER
G1 F1800 X-7 Y-29.466 E54.46877
G1 X-7 Y29.467 E57.40895
G1 X-41.6 Y29.466 E59.13515
G1 X-41.6 Y-29.466 E62.07528
G0 F3600 X-41.4 Y-29.466
G0 X-41.13 Y-28.996
G0 X-37.428 Y22.628
G0 X-11.172 Y22.628
G0 X-11.6 Y22.2
G1 F1800 X-11.6 Y-23.2 E64.3403
G1 X-37 Y-23.2 E65.60751
G1 X-37 Y22.2 E67.87252
G1 X-11.6 Y22.2 E69.13973
G0 F3600 X-11.6 Y22
G0 X-11.1 Y22
G0 X-10.81 Y22.99
;TYPE:SKIN
G1 F1800 X-10.81 Y-23.99 E71.48358
G1 X-37.79 Y-23.99 E72.82961
G1 X-37.79 Y22.99 E75.17346
G1 X-10.81 Y22.99 E76.51949
G0 F3600 X-7.79 Y28.677
G1 F1800 X-40.81 Y28.676 E78.16687
G1 X-40.81 Y-28.676 E81.02817
G1 X-7.79 Y-28.676 E82.67555
G1 X-7.79 Y28.677 E85.5369
G0 F3600 X-40.629 Y28.383
G1 F1800 X-40.517 Y28.495 E85.5448
G0 F3600 X-39.952 Y28.495
G1 F1800 X-40.629 Y27.818 E85.59257
G0 F3600 X-40.629 Y27.252
G1 F1800 X-39.386 Y28.495 E85.68027
G0 F3600 X-38.82 Y28.495
G1 F1800 X-40.629 Y26.686 E85.8079
G0 F3600 X-40.629 Y26.121
G1 F1800 X-38.255 Y28.495 E85.9754
G0 F3600 X-37.689 Y28.495
G1 F1800 X-40.629 Y25.555 E86.18283
G0 F3600 X-40.629 Y24.989
G1 F1800 X-37.123 Y28.495 E86.4302
G0 F3600 X-36.558 Y28.495
G1 F1800 X-40.629 Y24.424 E86.71743
G0 F3600 X-40.629 Y23.858
G1 F1800 X-35.992 Y28.495 E87.0446
G0 F3600 X-35.426 Y28.495
G1 F1800 X-40.629 Y23.292 E87.4117
G0 F3600 X-40.629 Y22.727
G1 F1800 X-34.861 Y28.495 E87.81866
G0 F3600 X-34.295 Y28.495
G1 F1800 X-40.629 Y22.161 E88.26556
G0 F3600 X-40.629 Y21.595
G1 F1800 X-33.729 Y28.495 E88.75239
G0 F3600 X-33.164 Y28.495
G1 F1800 X-40.629 Y21.03 E89.27909
G0 F3600 X-40.629 Y20.464
G1 F1800 X-37.969 Y23.124 E89.46676
G1 X-37.924 Y23.169
G1 X-32.598 Y28.495 E89.84254
G0 F3600 X-32.032 Y28.495
G1 F1800 X-37.358 Y23.169 E90.21832
G0 F3600 X-36.792 Y23.169
G1 F1800 X-31.466 Y28.495 E90.5941
G0 F3600 X-30.901 Y28.495
G1 F1800 X-36.227 Y23.169 E90.96988
G0 F3600 X-35.661 Y23.169
G1 F1800 X-30.335 Y28.495 E91.34565
G0 F3600 X-29.769 Y28.495
G1 F1800 X-35.095 Y23.169 E91.72143
G0 F3600 X-34.53 Y23.169
G1 F1800 X-29.204 Y28.495 E92.09721
G0 F3600 X-28.638 Y28.495
G1 F1800 X-33.964 Y23.169 E92.47299
G0 F3600 X-33.398 Y23.169
G1 F1800 X-28.072 Y28.495 E92.84877
G0 F3600 X-27.507 Y28.495
G1 F1800 X-32.833 Y23.169 E93.22454
G0 F3600 X-32.267 Y23.169
G1 F1800 X-26.941 Y28.495 E93.60032
G0 F3600 X-26.375 Y28.495
G1 F1800 X-31.701 Y23.169 E93.9761
G0 F3600 X-31.136 Y23.169
G1 F1800 X-25.81 Y28.495 E94.35188
G0 F3600 X-25.244 Y28.495
G1 F1800 X-30.57 Y23.169 E94.72766
G0 F3600 X-30.004 Y23.169
G1 F1800 X-24.678 Y28.495 E95.10343
G0 F3600 X-24.113 Y28.495
G1 F1800 X-29.438 Y23.169 E95.47918
G0 F3600 X-28.873 Y23.169
G1 F1800 X-23.547 Y28.495 E95.85496
G0 F3600 X-22.981 Y28.495
G1 F1800 X-28.307 Y23.169 E96.23073
G0 F3600 X-27.741 Y23.169
G1 F1800 X-22.415 Y28.495 E96.60651
G0 F3600 X-21.85 Y28.495
G1 F1800 X-27.176 Y23.169 E96.98229
G0 F3600 X-26.61 Y23.169
G1 F1800 X-21.284 Y28.495 E97.35807
G0 F3600 X-20.718 Y28.495
G1 F1800 X-26.044 Y23.169 E97.73385
G0 F3600 X-25.479 Y23.169
G1 F1800 X-20.153 Y28.495 E98.10962
G0 F3600 X-19.587 Y28.495
G1 F1800 X-24.913 Y23.169 E98.4854
G0 F3600 X-24.347 Y23.169
G1 F1800 X-19.021 Y28.495 E98.86118
G0 F3600 X-18.456 Y28.495
G1 F1800 X-23.782 Y23.169 E99.23696
G0 F3600 X-23.216 Y23.169
G1 F1800 X-17.89 Y28.495 E99.61274
G0 F3600 X-17.324 Y28.495
G1 F1800 X-22.65 Y23.169 E99.98851
G0 F3600 X-22.085 Y23.169
G1 F1800 X-16.759 Y28.495 E100.36429
G0 F3600 X-16.193 Y28.495
G1 F1800 X-21.519 Y23.169 E100.74007
G0 F3600 X-20.953 Y23.169
G1 F1800 X-15.627 Y28.495 E101.11585
G0 F3600 X-15.062 Y28.495
G1 F1800 X-20.388 Y23.169 E101.49163
G0 F3600 X-19.822 Y23.169
G1 F1800 X-14.496 Y28.495 E101.8674
G0 F3600 X-13.93 Y28.495
G1 F1800 X-19.256 Y23.169 E102.24318
G0 F3600 X-18.69 Y23.169
G1 F1800 X-13.365 Y28.495 E102.61893
G0 F3600 X-12.799 Y28.495
G1 F1800 X-18.125 Y23.169 E102.9947
G0 F3600 X-17.559 Y23.169
G1 F1800 X-12.233 Y28.495 E103.37048
G0 F3600 X-11.667 Y28.495
G1 F1800 X-16.993 Y23.169 E103.74626
G0 F3600 X-16.428 Y23.169
G1 F1800 X-11.102 Y28.495 E104.12204
G0 F3600 X-10.536 Y28.495
G1 F1800 X-15.862 Y23.169 E104.49782
G0 F3600 X-15.296 Y23.169
G1 F1800 X-9.97 Y28.495 E104.87359
G0 F3600 X-9.405 Y28.495
G1 F1800 X-14.731 Y23.169 E105.24937
G0 F3600 X-14.165 Y23.169
G1 F1800 X-8.839 Y28.495 E105.62515
G0 F3600 X-8.273 Y28.495
G1 F1800 X-13.599 Y23.169 E106.00093
G0 F3600 X-13.034 Y23.169
G1 F1800 X-7.969 Y28.234 E106.35829
G0 F3600 X-7.969 Y27.668
G1 F1800 X-12.468 Y23.169 E106.67572
G0 F3600 X-11.902 Y23.169
G1 F1800 X-7.969 Y27.102 E106.95321
G0 F3600 X-7.969 Y26.537
G1 F1800 X-11.337 Y23.169 E107.19084
G0 F3600 X-10.771 Y23.169
G1 F1800 X-7.969 Y25.971 E107.38854
G0 F3600 X-7.969 Y25.405
G1 F1800 X-10.629 Y22.745 E107.57622
G0 F3600 X-10.629 Y22.179
G1 F1800 X-7.969 Y24.839 E107.7639
G0 F3600 X-7.969 Y24.274
G1 F1800 X-10.629 Y21.614 E107.95157
G0 F3600 X-10.629 Y21.048
G1 F1800 X-7.969 Y23.708 E108.13925
G0 F3600 X-7.969 Y23.142
G1 F1800 X-10.629 Y20.482 E108.32693
G0 F3600 X-10.629 Y19.917
G1 F1800 X-7.969 Y22.577 E108.5146
G0 F3600 X-7.969 Y22.011
G1 F1800 X-10.629 Y19.351 E108.70228
G0 F3600 X-10.629 Y18.785
G1 F1800 X-7.969 Y21.445 E108.88996
G0 F3600 X-7.969 Y20.88
G1 F1800 X-10.629 Y18.22 E109.07764
G0 F3600 X-10.629 Y17.654
G1 F1800 X-7.969 Y20.314 E109.26531
G0 F3600 X-7.969 Y19.748
G1 F1800 X-10.629 Y17.088 E109.45299
G0 F3600 X-10.629 Y16.522
G1 F1800 X-7.969 Y19.183 E109.6407
G0 F3600 X-7.969 Y18.617
G1 F1800 X-10.629 Y15.957 E109.82838
G0 F3600 X-10.629 Y15.391
G1 F1800 X-7.969 Y18.051 E110.01606
G0 F3600 X-7.969 Y17.486
G1 F1800 X-10.629 Y14.825 E110.20377
G0 F3600 X-10.629 Y14.26
G1 F1800 X-7.969 Y16.92 E110.39145
G0 F3600 X-7.969 Y16.354
G1 F1800 X-10.629 Y13.694 E110.57913
G0 F3600 X-10.629 Y13.128
G1 F1800 X-7.969 Y15.788 E110.7668
G0 F3600 X-7.969 Y15.223
G1 F1800 X-10.629 Y12.563 E110.95448
G0 F3600 X-10.629 Y11.997
G1 F1800 X-7.969 Y14.657 E111.14216
G0 F3600 X-7.969 Y14.091
G1 F1800 X-10.629 Y11.431 E111.32984
G0 F3600 X-10.629 Y10.866
G1 F1800 X-7.969 Y13.526 E111.51751
G0 F3600 X-7.969 Y12.96
G1 F1800 X-10.629 Y10.3 E111.70519
G0 F3600 X-10.629 Y9.734
G1 F1800 X-7.969 Y12.394 E111.89287
G0 F3600 X-7.969 Y11.829
G1 F1800 X-10.629 Y9.169 E112.08055
G0 F3600 X-10.629 Y8.603
G1 F1800 X-7.969 Y11.263 E112.26822
G0 F3600 X-7.969 Y10.697
G1 F1800 X-10.629 Y8.037 E112.4559
G0 F3600 X-10.629 Y7.471
G1 F1800 X-7.969 Y10.132 E112.64361
G0 F3600 X-7.969 Y9.566
G1 F1800 X-10.629 Y6.906 E112.83129
G0 F3600 X-10.629 Y6.34
G1 F1800 X-7.969 Y9 E113.01897
G0 F3600 X-7.969 Y8.435
G1 F1800 X-10.629 Y5.774 E113.20668
G0 F3600 X-10.629 Y5.209
G1 F1800 X-7.969 Y7.869 E113.39436
G0 F3600 X-7.969 Y7.303
G1 F1800 X-10.629 Y4.643 E113.58204
G0 F3600 X-10.629 Y4.077
G1 F1800 X-7.969 Y6.738 E113.76975
G0 F3600 X-7.969 Y6.172
G1 F1800 X-10.629 Y3.512 E113.95743
G0 F3600 X-10.629 Y2.946
G1 F1800 X-7.969 Y5.606 E114.1451
G0 F3600 X-7.969 Y5.04
G1 F1800 X-10.629 Y2.38 E114.33278
G0 F3600 X-10.629 Y1.815
G1 F1800 X-7.969 Y4.475 E114.52046
G0 F3600 X-7.969 Y3.909
G1 F1800 X-10.629 Y1.249 E114.70813
G0 F3600 X-10.629 Y0.683
G1 F1800 X-7.969 Y3.343 E114.89581
G0 F3600 X-7.969 Y2.778
G1 F1800 X-10.629 Y0.118 E115.08349
G0 F3600 X-10.629 Y-.447
G1 F1800 X-7.969 Y2.212 E115.27113
G0 F3600 X-7.969 Y1.646
G1 F1800 X-10.629 Y-1.013 E115.45877
G0 F3600 X-10.629 Y-1.578
G1 F1800 X-7.969 Y1.081 E115.64642
G0 F3600 X-7.969 Y0.515
G1 F1800 X-10.629 Y-2.144 E115.83406
G0 F3600 X-10.629 Y-2.71
G1 F1800 X-7.969 Y-0.05 E116.02173
G0 F3600 X-7.969 Y-.615
G1 F1800 X-10.629 Y-3.276 E116.20945
G0 F3600 X-10.629 Y-3.841
G1 F1800 X-7.969 Y-1.181 E116.39712
G0 F3600 X-7.969 Y-1.747
G1 F1800 X-10.629 Y-4.407 E116.5848
G0 F3600 X-10.629 Y-4.973
G1 F1800 X-7.969 Y-2.312 E116.77252
G0 F3600 X-7.969 Y-2.878
G1 F1800 X-10.629 Y-5.538 E116.96019
G0 F3600 X-10.629 Y-6.104
G1 F1800 X-7.969 Y-3.444 E117.14787
G0 F3600 X-7.969 Y-4.01
G1 F1800 X-10.629 Y-6.67 E117.33555
G0 F3600 X-10.629 Y-7.235
G1 F1800 X-7.969 Y-4.575 E117.52322
G0 F3600 X-7.969 Y-5.141
G1 F1800 X-10.629 Y-7.801 E117.7109
G0 F3600 X-10.629 Y-8.367
